{ "compressionlevel":-1,
 "height":5,
 "infinite":false,
 "layers":[
        {
         "data":[1, 2, 3, 4, 5,
            6, 7, 8, 9, 10,
            11, 12, 13, 14, 15,
            16, 17, 18, 19, 20,
            21, 22, 23, 24, 25],
         "height":5,
         "id":1,
         "name":"Tile Layer 1",
         "opacity":1,
         "type":"tilelayer",
         "visible":true,
         "width":5,
         "x":0,
         "y":0
        }],
 "nextlayerid":2,
 "nextobjectid":1,
 "orientation":"orthogonal",
 "renderorder":"right-up",
 "tiledversion":"1.12.2",
 "tileheight":16,
 "tilesets":[
        {
         "firstgid":1,
         "source":"..\/..\/..\/Sokoban.tsx"
        }],
 "tilewidth":16,
 "type":"map",
 "version":"1.10",
 "width":5
}